assets/zoo-grey/ZooGrey18.svg

<svg xmlns="http://www.w3.org/2000/svg" data-name="Layer 1" viewBox="0 0 128 128"><path d="M104.244 93.583H82V70.5a1.25 1.25 0 00-1.25-1.25h-33.5A1.25 1.25 0 0046 70.5v19a1.25 1.25 0 002.5 0V71.75h14.25v21.833h-28V52.75h5.417a1.25 1.25 0 000-2.5H25.861L34.5 34.417h59l8.637 15.834H46.333a1.25 1.25 0 000 2.5H93.25v35.416a1.25 1.25 0 002.5 0V52.75h8.494a1.25 1.25 0 001.1-1.849l-10-18.333a1.252 1.252 0 00-1.1-.651H33.756a1.252 1.252 0 00-1.1.651l-10 18.334a1.25 1.25 0 001.1 1.849h8.494v40.832h-3.083a1.25 1.25 0 000 2.5h75.077a1.25 1.25 0 000-2.5zM65.25 71.75H79.5v21.833H65.25zM24.667 93.583h-.911a1.25 1.25 0 000 2.5h.911a1.25 1.25 0 000-2.5z"/><path d="M52.327 63.469v-4.992h1.779V57.46h-4.775v1.017h1.783v4.992h1.213zM56.1 57.6a2.338 2.338 0 00-.777.541 2.826 2.826 0 00-.559.824 3.821 3.821 0 00-.275 1.541 3.1 3.1 0 00.791 2.252 2.828 2.828 0 002.131.818 2.8 2.8 0 002.115-.822 3.682 3.682 0 00-.006-4.568 2.821 2.821 0 00-2.125-.824 3.3 3.3 0 00-1.295.238zm2.51 1.308a2.259 2.259 0 01.453 1.541 2.3 2.3 0 01-.465 1.568 1.62 1.62 0 01-2.387 0 2.812 2.812 0 01-.012-3.1 1.678 1.678 0 012.412-.006zM61.229 57.46h1.213v6.009h-1.213zM63.631 57.509v5.96h4.23v-1.013h-3.017v-4.947h-1.213zM73.181 58.477V57.46h-4.455v6.009h4.57v-1.013h-3.357v-1.635h3.017v-1.012h-3.017v-1.332h3.242zM76.89 63.469v-4.992h1.779V57.46h-4.775v1.017h1.783v4.992h1.213z"/></svg>

<svg xmlns="http://www.w3.org/2000/svg" data-name="Layer 1" viewBox="0 0 128 128"><path d="M104.244 93.583H82V70.5a1.25 1.25 0 0 0-1.25-1.25h-33.5A1.25 1.25 0 0 0 46 70.5v19a1.25 1.25 0 0 0 2.5 0V71.75h14.25v21.833h-28V52.75h5.417a1.25 1.25 0 0 0 0-2.5H25.861L34.5 34.417h59l8.637 15.834H46.333a1.25 1.25 0 0 0 0 2.5H93.25v35.416a1.25 1.25 0 0 0 2.5 0V52.75h8.494a1.25 1.25 0 0 0 1.1-1.849l-10-18.333a1.252 1.252 0 0 0-1.1-.651H33.756a1.252 1.252 0 0 0-1.1.651l-10 18.334a1.25 1.25 0 0 0 1.1 1.849h8.494v40.832h-3.083a1.25 1.25 0 0 0 0 2.5h75.077a1.25 1.25 0 0 0 0-2.5zM65.25 71.75H79.5v21.833H65.25zM24.667 93.583h-.911a1.25 1.25 0 0 0 0 2.5h.911a1.25 1.25 0 0 0 0-2.5z"/><path d="M52.327 63.469 52.327 58.477 54.106 58.477 54.106 57.46 49.331 57.46 49.331 58.477 51.114 58.477 51.114 63.469 52.327 63.469z"/><path d="M56.1 57.6a2.338 2.338 0 0 0-.777.541 2.826 2.826 0 0 0-.559.824 3.821 3.821 0 0 0-.275 1.541 3.1 3.1 0 0 0 .791 2.252 2.828 2.828 0 0 0 2.131.818 2.8 2.8 0 0 0 2.115-.822 3.682 3.682 0 0 0-.006-4.568 2.821 2.821 0 0 0-2.125-.824 3.3 3.3 0 0 0-1.295.238zm2.51 1.308a2.259 2.259 0 0 1 .453 1.541 2.3 2.3 0 0 1-.465 1.568 1.62 1.62 0 0 1-2.387 0 2.812 2.812 0 0 1-.012-3.1 1.678 1.678 0 0 1 2.412-.006z"/><path d="M61.229 57.46H62.442V63.469H61.229z"/><path d="M63.631 57.509 63.631 63.469 67.861 63.469 67.861 62.456 64.844 62.456 64.844 57.509 63.631 57.509z"/><path d="M73.181 58.477 73.181 57.46 68.726 57.46 68.726 63.469 73.296 63.469 73.296 62.456 69.939 62.456 69.939 60.821 72.956 60.821 72.956 59.809 69.939 59.809 69.939 58.477 73.181 58.477z"/><path d="M76.89 63.469 76.89 58.477 78.669 58.477 78.669 57.46 73.894 57.46 73.894 58.477 75.677 58.477 75.677 63.469 76.89 63.469z"/></svg>
